Sources/FrostedUI/Resources/Icons.xcassets/typography20.imageset/typography-20.svg

<svg width="20" height="20" viewBox="0 0 20 20" fill="none" xmlns="http://www.w3.org/2000/svg" data-fui-icon="true">
  <path
    d="M18 1.25C18.4142 1.25 18.75 1.58579 18.75 2V4.55957C18.75 4.97378 18.4142 5.30957 18 5.30957C17.5858 5.30957 17.25 4.97378 17.25 4.55957V2.75H10.75V17.25H13.0771C13.4913 17.2501 13.8271 17.5859 13.8271 18C13.8271 18.4141 13.4913 18.7499 13.0771 18.75H6.30762C5.89344 18.75 5.55762 18.4142 5.55762 18C5.55762 17.5858 5.89344 17.25 6.30762 17.25H9.25V2.75H2.75V4.55957C2.75 4.97378 2.41421 5.30957 2 5.30957C1.58579 5.30957 1.25 4.97378 1.25 4.55957V2C1.25 1.58579 1.58579 1.25 2 1.25H18Z"
    fill="currentColor"
  />
</svg>

<svg xmlns="http://www.w3.org/2000/svg" width="20" height="20" fill="none" data-fui-icon="true" viewBox="0 0 20 20"><path fill="currentColor" d="M18 1.25a.75.75 0 0 1 .75.75v2.56a.75.75 0 0 1-1.5 0V2.75h-6.5v14.5h2.327a.75.75 0 0 1 0 1.5h-6.77a.75.75 0 0 1 0-1.5H9.25V2.75h-6.5v1.81a.75.75 0 0 1-1.5 0V2A.75.75 0 0 1 2 1.25z"/></svg>
